client/src/assets/images/icon-forms.svg

<svg viewBox="0 0 92 92" xmlns="http://www.w3.org/2000/svg"><g fill="#808080"><path d="m62.66 74.76h-39.32a.75.75 0 0 1 -.75-.75v-48.18a.75.75 0 0 1 .75-.75h34a.75.75 0 0 1 .53.22l5.32 5.38a.75.75 0 0 1 .22.53v42.79a.75.75 0 0 1 -.75.76zm-38.57-1.5h37.82v-41.74l-4.91-4.94h-32.91z"/><path d="m68.66 68.76h-6v-1.5h5.25v-46.68h-37.82v5.25h-1.5v-6a.75.75 0 0 1 .75-.75h39.32a.75.75 0 0 1 .75.75v48.17a.75.75 0 0 1 -.75.76z"/><path d="m27.99 34.3h26.21v1.5h-26.21z"/><path d="m27.99 56.05h26.21v1.5h-26.21z"/><path d="m27.99 50.61h28.15v1.5h-28.15z"/><path d="m27.95 39.74h30.09v1.5h-30.09z"/><path d="m27.99 61.48h30.09v1.5h-30.09z"/><path d="m27.95 45.17h30.09v1.5h-30.09z"/><path d="m62.34 32.44h-5a.75.75 0 0 1 -.75-.75v-6h1.5v5.25h4.25z"/></g></svg>

<svg xmlns="http://www.w3.org/2000/svg" viewBox="0 0 92 92">
    <defs>
        <style>
            .cls-1{fill:#808080;}
        </style>
    </defs>
    <title>
        icon-forms
    </title>
    <path class="cls-1" d="M62.66,74.76H23.34a.75.75,0,0,1-.75-.75V25.83a.75.75,0,0,1,.75-.75h34a.75.75,0,0,1,.53.22l5.32,5.38a.75.75,0,0,1,.22.53V74A.75.75,0,0,1,62.66,74.76Zm-38.57-1.5H61.91V31.52L57,26.58H24.09Z"/>
    <path class="cls-1" d="M68.66,68.76h-6v-1.5h5.25V20.58H30.09v5.25h-1.5v-6a.75.75,0,0,1,.75-.75H68.66a.75.75,0,0,1,.75.75V68A.75.75,0,0,1,68.66,68.76Z"/>
    <rect class="cls-1" x="27.99" y="34.3" width="26.21" height="1.5"/>
    <rect class="cls-1" x="27.99" y="56.05" width="26.21" height="1.5"/>
    <rect class="cls-1" x="27.99" y="50.61" width="28.15" height="1.5"/>
    <rect class="cls-1" x="27.95" y="39.74" width="30.09" height="1.5"/>
    <rect class="cls-1" x="27.99" y="61.48" width="30.09" height="1.5"/>
    <rect class="cls-1" x="27.95" y="45.17" width="30.09" height="1.5"/>
    <path class="cls-1" d="M62.34,32.44h-5a.75.75,0,0,1-.75-.75v-6h1.5v5.25h4.25Z"/>
</svg>
